X: 6963
T: Chez Seychelles
R: mazurka
M: 3/4
K: Dmajor
|:d/ d>c|B2 B>c d>c|B2 B>c d>e|f2 f>e d>c|B2 B>c d>c|
B2 B>c d>c|B2 B>A F>G|A>B A>G F>E|D2 D3/2:|
|:E/ F>G|A2 d2 f>A|(3efe d>F d>A|(3Bcd B>A G>F|E>D E>F (3GAB|
[1 c2 e2 c2|(3ded c2 B2|A>B c>B A>G|F>E F3/2:|
[2 (3cdc e2 (3cde|d2 c2 B2|A>B A>G F>E|D2- D3/2||

